packages/kaspersky-hexa-ui-icons/src/iconsSVGs/16/VoiceAssistant.svg

<svg width="16" height="16" viewBox="0 0 16 16" fill="none" xmlns="http://www.w3.org/2000/svg">
<path fill-rule="evenodd" clip-rule="evenodd" d="M7.99994 2.68335C8.35892 2.68335 8.64994 2.97436 8.64994 3.33335V12.6667C8.64994 13.0257 8.35892 13.3167 7.99994 13.3167C7.64095 13.3167 7.34994 13.0257 7.34994 12.6667V3.33335C7.34994 2.97436 7.64095 2.68335 7.99994 2.68335ZM5.33327 4.68335C5.69225 4.68335 5.98327 4.97436 5.98327 5.33335V10C5.98327 10.359 5.69225 10.65 5.33327 10.65C4.97428 10.65 4.68327 10.359 4.68327 10V5.33335C4.68327 4.97436 4.97428 4.68335 5.33327 4.68335ZM10.6666 4.68335C11.0256 4.68335 11.3166 4.97436 11.3166 5.33335V10C11.3166 10.359 11.0256 10.65 10.6666 10.65C10.3076 10.65 10.0166 10.359 10.0166 10V5.33335C10.0166 4.97436 10.3076 4.68335 10.6666 4.68335ZM2.6666 6.68335C3.02559 6.68335 3.3166 6.97436 3.3166 7.33335V8.66668C3.3166 9.02567 3.02559 9.31668 2.6666 9.31668C2.30762 9.31668 2.0166 9.02567 2.0166 8.66668V7.33335C2.0166 6.97436 2.30762 6.68335 2.6666 6.68335ZM13.3333 6.68335C13.6923 6.68335 13.9833 6.97436 13.9833 7.33335V8.66668C13.9833 9.02567 13.6923 9.31668 13.3333 9.31668C12.9743 9.31668 12.6833 9.02567 12.6833 8.66668V7.33335C12.6833 6.97436 12.9743 6.68335 13.3333 6.68335Z" fill="black"/>
</svg>

<svg xmlns="http://www.w3.org/2000/svg" width="16" height="16" fill="none" viewBox="0 0 16 16"><path fill="#000" fill-rule="evenodd" d="M8 2.6834a.65.65 0 0 1 .65.65v9.3333a.65.65 0 1 1-1.3 0V3.3333a.65.65 0 0 1 .65-.65m-2.6667 2a.65.65 0 0 1 .65.65V10a.65.65 0 1 1-1.3 0V5.3334a.65.65 0 0 1 .65-.65m5.3333 0a.65.65 0 0 1 .65.65V10a.65.65 0 1 1-1.3 0V5.3334a.65.65 0 0 1 .65-.65m-8 2a.65.65 0 0 1 .65.65v1.3333a.65.65 0 1 1-1.3 0V7.3333a.65.65 0 0 1 .65-.65m10.6667 0a.65.65 0 0 1 .65.65v1.3333a.65.65 0 1 1-1.3 0V7.3333a.65.65 0 0 1 .65-.65"/></svg>
